X:1
T:Your Elegant Motor Car
B:Hawk and Harnser Alan Helsdon.
S:From Walter Pardon.
M:3/4
L:1/4
K:D
d3|c3|B G B|A3|
w:Oh Joe, do let me go,
F E D|D F A|B2 E|E3|
w:ri-ding a-way in your mo-tor car.
F F F|F E D|c2 c|c3|
w:Peo-ple will say you're pe-cu-li-ar,
B2 B|B2 c|B2 A|A3|
w:so you are and sing-u-lar.
d3|c3|B G B|A3|
w:Oh Joe, do let me go;
F E D|F2 A|B3-|B2 c|
w:I'll be your gui-ding star; there's
d2 B|A3|d2 B|A B c|
w:room for two, me and you in your
d A F|E2 F|D3-|D3||
w:e-le-gant mo-tor car.
W:O Joe, do let me go,
W:In your elegant motor car.
W:People will say you're peculiar,
W:So you are and singular.
W:Oh Joe, do let me go;
W:I'll be your guiding star;
W:There's room for two,
W:Me and you in your elegant motor car.
W:
